configs/marketplace-logos/BarnBridge.svg

<svg xmlns="http://www.w3.org/2000/svg" fill="none" viewBox="0 0 512 494">
  <path fill="#fff" d="M0 0h512v494H0z"/>
  <path fill="#FF4339" d="M257.222 220.979h-2.461c-33.231 0-59.077 27.009-59.077 61.385v66.296l60.307-45.425 60.308 45.425v-66.296c0-33.148-27.077-60.158-59.077-61.385Z"/>
  <path fill="#FF4339" d="M0 0v493.538l153.846-114.177V249.224l-28.308-22.098L256 128.909l130.462 98.217-28.308 22.098v130.137L512 493.538V0H0Z"/>
</svg>

<svg width="512" height="494" viewBox="0 0 512 494" fill="none" xmlns="http://www.w3.org/2000/svg">
<rect width="512" height="494" fill="white"/>
<path d="M257.222 220.979H254.761C221.53 220.979 195.684 247.988 195.684 282.364V348.66L255.991 303.235L316.299 348.66V282.364C316.299 249.216 289.222 222.206 257.222 220.979Z" fill="#FF4339"/>
<path d="M0 0V493.538L153.846 379.361V249.224L125.538 227.126L256 128.909L386.462 227.126L358.154 249.224V379.361L512 493.538V0H0Z" fill="#FF4339"/>
</svg>
